X: 4179
T: Blue Ribbon, The
R: polka
M: 2/4
K: Dmajor
|:A2 d/e/f/g/|a2 f2|g2 e/d/e/g/|f2 dB|
A2 d/e/f/g/|ad f2|g>e fe/d/|ce d2:|
|:af dc/d/|eA A/B/=c/A/|dc Ag|fd d/c/d|
af dc/d/|eA A/B/=c/A/|dc AF|G2 G2:|

